X: 20778
T: Johnny Loughran's
R: reel
M: 4/4
K: Cmajor
cA|GEcA GEEF|GEcA G4|GEcA GAcd|edcA d2 cA|
GEcA GEEF|GEcA G4|GEcA GAcd|edcA d2||
cA|cdef g2ge|a2af g2ge|cdef g2ge|agec d2 cA|
cdef g/g/g ge|a/a/a af g/g/g ge|cdef g/g/g ge|agec d2||

